packages/ffe-icons/icons/filled/sm/counter_1.svg

<svg xmlns="http://www.w3.org/2000/svg" height="20" viewBox="0 -960 960 960" width="20"><path d="M480.343-116.001q-75.112 0-141.48-28.42-66.369-28.42-116.182-78.21-49.814-49.791-78.247-116.087t-28.433-141.673q0-75.378 28.42-141.246 28.42-65.869 78.21-115.682 49.791-49.814 116.087-78.247t141.673-28.433q75.378 0 141.246 28.42 65.869 28.42 115.682 78.21 49.814 49.791 78.247 115.853t28.433 141.173q0 75.112-28.42 141.48-28.42 66.369-78.21 116.182-49.791 49.814-115.853 78.247t-141.173 28.433Zm9.658-494V-324q0 11.05 7.418 18.524 7.418 7.475 18.384 7.475 10.966 0 18.581-7.475 7.615-7.474 7.615-18.524v-305.846q0-13.665-9.244-22.909t-22.909-9.244H420q-11.05 0-18.524 7.418-7.475 7.418-7.475 18.384 0 10.966 7.475 18.581 7.474 7.615 18.524 7.615h70.001Z"/></svg>

<svg xmlns="http://www.w3.org/2000/svg" height="20" viewBox="0 -960 960 960" width="20"><path d="M480.34-116q-75.11 0-141.48-28.42-66.37-28.42-116.18-78.21-49.81-49.79-78.25-116.09Q116-405.01 116-480.39q0-75.38 28.42-141.25t78.21-115.68q49.79-49.81 116.09-78.25Q405.01-844 480.39-844q75.38 0 141.25 28.42t115.68 78.21q49.81 49.79 78.25 115.85Q844-555.45 844-480.34q0 75.11-28.42 141.48-28.42 66.37-78.21 116.18-49.79 49.81-115.85 78.25Q555.45-116 480.34-116ZM490-610v286q0 11.05 7.42 18.52 7.42 7.48 18.38 7.48 10.97 0 18.58-7.48Q542-312.95 542-324v-305.85q0-13.66-9.24-22.91-9.25-9.24-22.91-9.24H420q-11.05 0-18.52 7.42-7.48 7.42-7.48 18.38 0 10.97 7.48 18.58Q408.95-610 420-610h70Z"/></svg>
